tenants/businesswise/icons/bars.svg

<svg fill="none" height="24" viewBox="0 0 24 24" width="24" xmlns="http://www.w3.org/2000/svg"><path d="m2.26786 6.51573h19.46424c.0938 0 .1859-.03269.2555-.09407.0701-.06174.1124-.1484.1124-.24188v-.94382c0-.09349-.0423-.18015-.1124-.24189-.0696-.06138-.1617-.09407-.2555-.09407h-19.46424c-.09376 0-.18583.03269-.25551.09407-.07008.06174-.11235.1484-.11235.24189v.94382c0 .09348.04227.18014.11235.24188.06968.06138.16175.09407.25551.09407zm0 6.29217h19.46424c.0938 0 .1859-.0327.2555-.0941.0701-.0617.1124-.1484.1124-.2419v-.9438c0-.0935-.0423-.1802-.1124-.2419-.0696-.0614-.1617-.0941-.2555-.0941h-19.46424c-.09376 0-.18583.0327-.25551.0941-.07008.0617-.11235.1484-.11235.2419v.9438c0 .0935.04227.1802.11235.2419.06968.0614.16175.0941.25551.0941zm0 6.2921h19.46424c.0938 0 .1859-.0327.2555-.0941.0701-.0617.1124-.1484.1124-.2419v-.9438c0-.0935-.0423-.1801-.1124-.2419-.0696-.0613-.1617-.094-.2555-.094h-19.46424c-.09376 0-.18583.0327-.25551.094-.07008.0618-.11235.1484-.11235.2419v.9438c0 .0935.04227.1802.11235.2419.06968.0614.16175.0941.25551.0941z" fill="#000" stroke="#000" stroke-width=".2"/></svg>

<svg width="24" height="24" viewBox="0 0 24 24" fill="none" xmlns="http://www.w3.org/2000/svg">
<path d="M2.26786 6.51573H21.7321C21.8259 6.51573 21.918 6.48304 21.9876 6.42166C22.0577 6.35992 22.1 6.27326 22.1 6.17978V5.23596C22.1 5.14247 22.0577 5.05581 21.9876 4.99407C21.918 4.93269 21.8259 4.9 21.7321 4.9H2.26786C2.1741 4.9 2.08203 4.93269 2.01235 4.99407C1.94227 5.05581 1.9 5.14247 1.9 5.23596V6.17978C1.9 6.27326 1.94227 6.35992 2.01235 6.42166C2.08203 6.48304 2.1741 6.51573 2.26786 6.51573ZM2.26786 12.8079H21.7321C21.8259 12.8079 21.918 12.7752 21.9876 12.7138C22.0577 12.6521 22.1 12.5654 22.1 12.4719V11.5281C22.1 11.4346 22.0577 11.3479 21.9876 11.2862C21.918 11.2248 21.8259 11.1921 21.7321 11.1921H2.26786C2.1741 11.1921 2.08203 11.2248 2.01235 11.2862C1.94227 11.3479 1.9 11.4346 1.9 11.5281V12.4719C1.9 12.5654 1.94227 12.6521 2.01235 12.7138C2.08203 12.7752 2.1741 12.8079 2.26786 12.8079ZM2.26786 19.1H21.7321C21.8259 19.1 21.918 19.0673 21.9876 19.0059C22.0577 18.9442 22.1 18.8575 22.1 18.764V17.8202C22.1 17.7267 22.0577 17.6401 21.9876 17.5783C21.918 17.517 21.8259 17.4843 21.7321 17.4843H2.26786C2.1741 17.4843 2.08203 17.517 2.01235 17.5783C1.94227 17.6401 1.9 17.7267 1.9 17.8202V18.764C1.9 18.8575 1.94227 18.9442 2.01235 19.0059C2.08203 19.0673 2.1741 19.1 2.26786 19.1Z" fill="black" stroke="black" stroke-width="0.2"/>
</svg>
